X: 094
T: Doublings
B: C. & S. Thompson, "The Compleat Tutor for the Fife" c.1760 p.9 #4
S: http://imslp.org/wiki/The_Compleat_Tutor_for_the_Fife_(Anonymous)
Z: 2014 John Chambers <jc:trillian.mit.edu>
M: 2/4
L: 1/8
K: G
% - - - - - - - - - - - - - - - - - - - - - - - - -
|:\
ddgg | ffgf/e/ | de/d/ cd/c/ | B2A2 |\
ddgg | fgag | fe/d/ ed/^c/ | d2z2 :|
|:\
BBcd | eee2 | AABc | ddd2 |\
GGBB | ddgd | gf/e/ dc/B/ | A2G2 :|
% - - - - - - - - - - - - - - - - - - - - - - - - -
